carriers/postGr.svg

<svg width="128" height="64" viewBox="0 0 128 64" fill="none" xmlns="http://www.w3.org/2000/svg">
<rect width="128" height="64" rx="6" fill="white"/>
<path d="M59.49 9.18587C62.9693 9.18587 68.2526 8.43418 71.4096 8.43418C75.211 8.43418 78.6903 8.94962 82.1051 11.5483C82.234 11.6342 82.3199 11.6127 82.191 11.4409C80.4084 9.14291 76.8862 4.65426 69.5626 4.65426C65.525 4.65426 61.0363 6.0073 55.8604 6.0073C52.7248 6.0073 48.5798 5.42742 45.4012 4.00995C45.3153 3.967 45.2938 4.07438 45.3583 4.11734C49.4174 7.25295 53.1973 9.18587 59.49 9.18587Z" fill="#006CA5"/>
<path d="M81.117 17.1753C81.2029 17.1538 81.2459 17.0894 81.117 17.0464C79.1412 16.5739 76.9076 16.4666 74.4592 16.4666C73.6431 16.4666 72.9129 16.488 71.0229 16.488C65.6108 16.488 59.7905 15.7149 55.7314 13.4598C55.624 13.3954 55.5596 13.5028 55.6455 13.5672C59.7046 16.8531 64.5584 18.9579 70.5504 18.9579C72.333 18.9364 76.7143 18.5498 81.117 17.1753Z" fill="#006CA5"/>
<path d="M91.7483 15.5214C88.7631 17.9483 86.3791 22.3725 82.7281 24.284C80.0649 25.68 77.0367 26.1525 75.6407 26.3243C75.4689 26.3458 75.3186 26.2598 75.6407 26.131C78.4971 25.0357 81.6972 23.833 84.8328 18.6141C87.9469 13.4382 89.4933 12.6221 90.8463 11.72C89.4933 10.5173 86.6154 8.77771 81.3535 8.54147C81.2462 8.54147 81.1388 8.39113 81.3535 8.3267C81.869 8.15489 83.2865 8.09045 83.6301 8.09045C88.3335 8.09045 92.8222 9.12134 95.9578 12.1066C96.6665 12.7724 96.4947 12.9442 96.0437 13.0946C95.4638 13.2878 94.5833 13.5885 93.3806 14.3402C94.6262 15.3281 96.4303 17.2825 97.5041 18.7C97.9766 19.3443 97.7404 20.1604 97.9766 20.7403C98.1699 21.2343 101.005 23.7685 103.002 25.6155C103.754 26.3243 104.441 27.033 104.742 27.3552C105.343 27.978 105.472 28.0424 105.472 28.429C105.472 29.331 103.604 30.0183 103.604 30.7485C103.604 31.3713 104.291 31.6935 104.291 32.166C104.291 32.5955 103.969 33.1539 103.689 33.6049C104.183 33.9056 104.634 34.1204 104.634 34.7432C104.634 35.3445 104.226 35.7096 104.226 36.3325C104.226 37.6855 105.343 38.5231 105.343 39.7688C105.343 41.0144 104.549 42.1742 102.68 42.7755C100.468 43.5057 98.4921 43.7635 96.688 43.9567C94.6692 44.193 90.5886 43.9353 86.2717 48.6602C83.4798 51.7099 80.1938 55.726 77.187 57.573C75.2756 58.7543 73.2568 59.6992 69.2406 59.9999C69.1118 59.9999 69.0903 59.8926 69.2191 59.8496C73.5789 58.3677 76.2421 55.3824 77.7025 53.922C81.1388 50.4857 83.9522 44.5581 89.5362 43.9997C89.5792 43.9997 89.5792 43.9782 89.5362 43.9567C86.959 43.4843 83.5012 42.1956 81.869 39.103C81.8046 38.9741 81.9119 38.9526 81.9764 39.0171C83.5227 40.3486 85.9925 41.9809 91.6624 41.9809C92.8436 41.9809 95.292 41.7661 97.8477 41.2721C100.919 40.6708 102.895 39.8976 102.895 38.6949C102.895 37.9862 102.379 36.354 101.928 35.2157C101.306 33.6908 100.812 32.5526 100.812 30.77C100.812 29.2881 101.026 28.9659 101.026 28.3001C101.026 26.7323 99.2437 23.6182 96.5591 22.2652C94.4115 22.5873 92.0705 22.2866 91.3188 22.1363C91.0826 22.0933 91.0825 22.0289 91.2544 21.8356C93.1443 19.7524 94.6692 19.151 95.2491 18.8933C94.5188 17.304 93.7027 15.908 92.8007 14.7268C92.4785 14.9416 92.1349 15.2208 91.7483 15.5214Z" fill="#006CA5"/>
<path d="M74.3089 14.4048C77.2083 14.4048 81.3963 14.5551 84.7467 16.1229C84.8326 16.1659 84.897 16.08 84.8541 15.9941C82.0621 11.4625 75.8767 10.539 72.9129 10.539C66.5988 10.539 64.1504 11.0115 61.251 11.0115C55.9033 11.0115 51.6509 9.63694 48.7515 7.53221C48.6871 7.48926 48.6227 7.57517 48.6871 7.61813C54.9583 13.9967 63.3343 14.4478 69.1974 14.4478C70.4646 14.4478 73.2136 14.4048 74.3089 14.4048Z" fill="#006CA5"/>
<path d="M22.5283 41.487V27.6989H31.0117V30.362H25.7928V34.2063H30.8828V36.8695H25.7928V41.2937H31.0546V43.9568H24.9982C23.6236 43.9568 22.5283 42.8615 22.5283 41.487Z" fill="#006CA5"/>
<path d="M53.3045 30.362V43.9783H49.9756V30.362H45.7231V29.374C45.7231 28.4505 46.4748 27.6989 47.3983 27.6989H57.2991V30.362H53.3045Z" fill="#006CA5"/>
<path d="M43.0817 41.9165L39.5381 31.5003L35.2856 43.9783H32.5151L38.1421 27.8707C38.3568 27.7848 38.9367 27.7203 39.2803 27.7203C40.3971 27.7203 41.7072 27.8922 42.5233 30.1687L47.42 43.9783H46.2388C45.1865 43.9568 43.7046 43.742 43.0817 41.9165Z" fill="#006CA5"/>
<path d="M65.8041 40.0265H59.9839L58.6523 43.9568H55.8818L61.5088 27.8492C61.7235 27.7633 62.3034 27.6989 62.647 27.6989C63.8283 27.6989 65.0739 27.8707 65.89 30.1472L70.7868 43.9568H69.584C68.5317 43.9568 67.0498 43.7206 66.4484 41.895L65.8041 40.0265ZM60.8215 37.5997H64.9665L62.9048 31.5002L60.8215 37.5997Z" fill="#006CA5"/>
<path d="M28.1769 51.753H29.6373C29.5729 51.3449 29.3367 51.1087 28.9071 51.1087C28.6064 51.1087 28.2628 51.3019 28.1769 51.753ZM28.1554 52.3328C28.2413 52.9127 28.6709 53.149 29.036 53.149C29.4011 53.149 29.6803 53.0416 29.8951 52.8912L30.1743 53.5141C29.7877 53.7288 29.4011 53.8147 28.9501 53.8147C27.8762 53.8147 27.2104 53.106 27.2104 52.1395C27.2104 51.1516 27.9192 50.4429 28.9071 50.4429C29.9595 50.4429 30.5394 51.1301 30.5394 52.1181C30.5394 52.1825 30.5394 52.2684 30.5179 52.3328H28.1554Z" fill="#006CA5"/>
<path d="M54.8724 50.4642C53.906 50.4642 53.1328 51.173 53.1328 52.1609C53.1328 53.1488 53.906 53.8361 54.8724 53.8361C55.8389 53.8361 56.6121 53.1488 56.6121 52.1609C56.6121 51.1515 55.8174 50.4642 54.8724 50.4642ZM54.8724 53.02C54.3999 53.02 54.0348 52.6334 54.0348 52.1394C54.0348 51.6455 54.3999 51.2589 54.8724 51.2589C55.3449 51.2589 55.71 51.6455 55.71 52.1394C55.71 52.6334 55.3449 53.02 54.8724 53.02Z" fill="#006CA5"/>
<path d="M52.3809 49.1973C52.0802 48.961 51.6292 48.8536 51.1567 48.8536H49.6748V53.7289H50.6842V51.9248H51.1352C51.6507 51.9248 52.1017 51.796 52.4024 51.5597C52.7245 51.302 52.9178 50.9154 52.9178 50.357C52.9393 49.8416 52.7245 49.4335 52.3809 49.1973ZM51.6292 50.9154L50.6842 51.0872V49.6698H50.9634C51.1997 49.6698 51.4144 49.6912 51.5862 49.7986C51.7581 49.906 51.8869 50.1208 51.8869 50.357C51.8869 50.5933 51.7795 50.808 51.6292 50.9154Z" fill="#006CA5"/>
<path d="M22.5283 49.3476C22.5283 49.0684 22.7431 48.8536 23.0223 48.8536H23.5163V50.7436H25.5136V49.3476C25.5136 49.0684 25.7284 48.8536 26.0076 48.8536H26.5015V53.7289H25.4921V51.5597H23.4948V53.7289H22.5283V49.3476Z" fill="#006CA5"/>
<path d="M31.6773 48.3596H32.1069V53.7288H31.1833V48.8751C31.1833 48.5959 31.3981 48.3596 31.6773 48.3596Z" fill="#006CA5"/>
<path d="M33.5889 48.3596H34.0185V53.7288H33.0735V48.8751C33.0735 48.5959 33.3097 48.3596 33.5889 48.3596Z" fill="#006CA5"/>
<path d="M40.5904 50.4642C40.2038 50.4642 39.8602 50.5931 39.6239 50.9797V50.5716H38.7004V53.7502H39.6239V52.118C39.6239 51.624 39.8602 51.2589 40.3112 51.2589C40.7622 51.2589 40.9126 51.581 40.9126 52.032V53.7287H41.8361V51.8173C41.8146 50.9797 41.4065 50.4642 40.5904 50.4642Z" fill="#006CA5"/>
<path d="M45.3795 52.1395C45.3795 51.6026 45.7876 51.1731 46.303 51.1731C46.5393 51.1731 46.797 51.1946 47.1192 51.3878V50.6147C46.7755 50.4643 46.4749 50.4429 46.1957 50.4429C45.2077 50.4429 44.4131 51.1301 44.4131 52.1395C44.4131 53.1275 45.2077 53.8147 46.1957 53.8147C46.5178 53.8147 46.8829 53.7503 47.1406 53.6429V52.8698C46.8829 53.0416 46.6037 53.0845 46.3245 53.0845C45.7876 53.0845 45.3795 52.6765 45.3795 52.1395Z" fill="#006CA5"/>
<path d="M58.7596 51.7315C58.5449 51.667 58.1583 51.6241 58.1583 51.3449C58.1583 51.1516 58.3945 51.0657 58.5663 51.0657C58.6952 51.0657 58.8241 51.0872 58.9529 51.1301C59.0388 51.1731 59.2536 51.216 59.361 50.9798L59.5113 50.6576C59.2321 50.4643 58.8455 50.3784 58.5234 50.3784C57.8791 50.3784 57.2348 50.7221 57.2348 51.4093C57.2348 51.9677 57.6428 52.1825 57.9865 52.2684C58.3516 52.3758 58.6952 52.4402 58.6952 52.7409C58.6952 52.9556 58.459 53.063 58.2442 53.063C58.0724 53.063 57.8576 53.0415 57.6643 52.9127C57.5569 52.8482 57.3207 52.8053 57.1703 53.0415L56.9771 53.3637C57.3851 53.6859 57.8146 53.7932 58.2227 53.7932C58.9314 53.7932 59.6187 53.4281 59.6187 52.655C59.6617 52.118 59.2536 51.8388 58.7596 51.7315Z" fill="#006CA5"/>
<path d="M61.0148 49.4763H61.4444V50.5502H62.0457V51.3233H61.4444V53.7287H60.5209V51.3233H60.1128V50.5502H60.5209V49.9703C60.4994 49.7126 60.7356 49.4763 61.0148 49.4763Z" fill="#006CA5"/>
<path d="M43.2962 50.5503H43.7257V53.7289H42.8022V51.0443C42.8022 50.7651 43.017 50.5503 43.2962 50.5503Z" fill="#006CA5"/>
<path d="M35.6723 51.753H37.1542C37.0897 51.3449 36.8535 51.1087 36.4239 51.1087C36.1018 51.1087 35.7582 51.3019 35.6723 51.753ZM35.6508 52.3328C35.7367 52.9127 36.1662 53.149 36.5313 53.149C36.8964 53.149 37.1756 53.0416 37.3904 52.8912L37.6696 53.5141C37.283 53.7288 36.8964 53.8147 36.4239 53.8147C35.3501 53.8147 34.6843 53.106 34.6843 52.1395C34.6843 51.1516 35.3931 50.4429 36.381 50.4429C37.4334 50.4429 38.0132 51.1301 38.0132 52.1181C38.0132 52.1825 38.0132 52.2684 37.9918 52.3328H35.6508Z" fill="#006CA5"/>
<path d="M43.8334 49.4119C43.8334 49.6911 43.6186 49.9059 43.3609 49.9059C43.1032 49.9059 42.8884 49.6911 42.8884 49.4119C42.8884 49.1542 43.1032 48.918 43.3609 48.918C43.6186 48.9394 43.8334 49.1542 43.8334 49.4119Z" fill="#006CA5"/>
</svg>

<svg xmlns="http://www.w3.org/2000/svg" width="128" height="64" fill="none"><rect width="128" height="64" fill="#fff" rx="6"/><path fill="#006CA5" d="M59.49 9.186c3.48 0 8.763-.752 11.92-.752 3.801 0 7.28.516 10.695 3.114.129.086.215.065.086-.107-1.783-2.298-5.305-6.787-12.628-6.787-4.038 0-8.527 1.353-13.703 1.353-3.135 0-7.28-.58-10.459-1.997-.086-.043-.107.064-.043.107 4.06 3.136 7.84 5.069 14.132 5.069ZM81.117 17.175c.086-.021.129-.086 0-.129-1.976-.472-4.21-.58-6.658-.58-.816 0-1.546.022-3.436.022-5.412 0-11.232-.773-15.292-3.028-.107-.065-.171.043-.086.107 4.06 3.286 8.913 5.39 14.905 5.39 1.783-.02 6.164-.407 10.567-1.782Z"/><path fill="#006CA5" d="M91.748 15.521c-2.985 2.427-5.369 6.851-9.02 8.763-2.663 1.396-5.691 1.869-7.087 2.04-.172.022-.322-.064 0-.193 2.856-1.095 6.056-2.298 9.192-7.517 3.114-5.176 4.66-5.992 6.013-6.894-1.353-1.203-4.23-2.942-9.493-3.179-.107 0-.214-.15 0-.214.516-.172 1.934-.237 2.277-.237 4.704 0 9.192 1.031 12.328 4.017.709.665.537.837.086.988-.58.193-1.46.493-2.663 1.245 1.245.988 3.05 2.942 4.123 4.36.473.644.236 1.46.473 2.04.193.494 3.028 3.029 5.025 4.876a42.929 42.929 0 0 1 1.74 1.74c.601.622.73.686.73 1.073 0 .902-1.868 1.59-1.868 2.32 0 .622.687.945.687 1.417 0 .43-.322.988-.602 1.439.494.3.945.515.945 1.138 0 .601-.408.967-.408 1.59 0 1.352 1.117 2.19 1.117 3.436 0 1.245-.794 2.405-2.663 3.007-2.212.73-4.188.987-5.992 1.18-2.019.237-6.1-.02-10.416 4.704-2.792 3.05-6.078 7.066-9.085 8.913-1.911 1.181-3.93 2.126-7.946 2.427-.13 0-.15-.107-.022-.15 4.36-1.482 7.023-4.468 8.484-5.928 3.436-3.436 6.25-9.364 11.833-9.922.043 0 .043-.022 0-.043-2.577-.473-6.035-1.761-7.667-4.854-.064-.129.043-.15.107-.086 1.547 1.332 4.017 2.964 9.686 2.964 1.182 0 3.63-.215 6.186-.709 3.071-.601 5.047-1.374 5.047-2.577 0-.709-.516-2.341-.967-3.48-.622-1.524-1.116-2.662-1.116-4.445 0-1.482.214-1.804.214-2.47 0-1.568-1.782-4.682-4.467-6.035-2.147.322-4.489.022-5.24-.129-.236-.043-.237-.107-.065-.3 1.89-2.084 3.415-2.685 3.995-2.943-.73-1.589-1.546-2.985-2.448-4.166-.323.215-.666.494-1.053.794Z"/><path fill="#006CA5" d="M74.309 14.405c2.9 0 7.087.15 10.438 1.718.086.043.15-.043.107-.129-2.792-4.531-8.977-5.455-11.941-5.455-6.314 0-8.763.473-11.662.473-5.348 0-9.6-1.375-12.5-3.48-.064-.043-.128.043-.064.086 6.271 6.379 14.647 6.83 20.51 6.83 1.268 0 4.017-.043 5.112-.043ZM22.528 41.487V27.699h8.484v2.663h-5.22v3.844h5.09v2.663h-5.09v4.425h5.263v2.663h-6.057a2.457 2.457 0 0 1-2.47-2.47ZM53.304 30.362v13.616h-3.328V30.362h-4.253v-.988c0-.923.752-1.675 1.675-1.675H57.3v2.663h-3.995ZM43.082 41.916 39.538 31.5l-4.252 12.478h-2.77l5.626-16.107c.215-.086.795-.15 1.138-.15 1.117 0 2.427.171 3.243 2.448l4.897 13.81h-1.181c-1.052-.022-2.534-.237-3.157-2.063ZM65.804 40.026h-5.82l-1.332 3.93h-2.77l5.627-16.107c.215-.086.794-.15 1.138-.15 1.181 0 2.427.172 3.243 2.448l4.897 13.81h-1.203c-1.052 0-2.534-.236-3.136-2.062l-.644-1.869ZM60.821 37.6h4.145l-2.061-6.1-2.084 6.1ZM28.177 51.753h1.46c-.064-.408-.3-.644-.73-.644-.3 0-.644.193-.73.644Zm-.022.58c.086.58.516.816.881.816s.644-.107.86-.258l.278.623c-.386.215-.773.3-1.224.3-1.074 0-1.74-.708-1.74-1.675 0-.987.71-1.696 1.697-1.696 1.052 0 1.632.687 1.632 1.675 0 .064 0 .15-.021.215h-2.363ZM54.872 50.464c-.966 0-1.74.709-1.74 1.697 0 .988.774 1.675 1.74 1.675.967 0 1.74-.687 1.74-1.675 0-1.01-.795-1.697-1.74-1.697Zm0 2.556c-.472 0-.837-.387-.837-.88 0-.495.365-.881.837-.881.473 0 .838.386.838.88s-.365.881-.838.881ZM52.38 49.197c-.3-.236-.75-.343-1.223-.343h-1.482v4.875h1.01v-1.804h.45c.516 0 .967-.129 1.267-.365.322-.258.516-.645.516-1.203.021-.515-.194-.923-.537-1.16Zm-.75 1.718-.946.172V49.67h.28c.236 0 .45.021.622.129a.67.67 0 0 1 .3.558c0 .236-.107.451-.257.558ZM22.528 49.348c0-.28.215-.494.494-.494h.494v1.89h1.998v-1.396c0-.28.214-.494.494-.494h.494v4.875h-1.01v-2.17h-1.997v2.17h-.967v-4.381ZM31.677 48.36h.43v5.369h-.924v-4.854c0-.28.215-.515.494-.515ZM33.589 48.36h.43v5.369h-.945v-4.854c0-.28.236-.515.515-.515ZM40.59 50.464c-.386 0-.73.13-.966.516v-.408H38.7v3.178h.924v-1.632c0-.494.236-.86.687-.86.451 0 .602.323.602.774v1.697h.923v-1.912c-.021-.837-.43-1.353-1.246-1.353ZM45.38 52.14c0-.537.408-.967.923-.967.236 0 .494.022.816.215v-.773a2.176 2.176 0 0 0-.923-.172c-.988 0-1.783.687-1.783 1.697 0 .987.795 1.675 1.783 1.675.322 0 .687-.065.945-.172v-.773c-.258.172-.537.215-.816.215a.926.926 0 0 1-.946-.946ZM58.76 51.731c-.215-.064-.602-.107-.602-.386 0-.193.236-.28.408-.28.13 0 .258.022.387.065.086.043.3.086.408-.15l.15-.322c-.279-.194-.666-.28-.988-.28-.644 0-1.288.344-1.288 1.031 0 .559.408.773.752.86.365.107.708.171.708.472 0 .215-.236.322-.45.322-.173 0-.387-.022-.58-.15a.356.356 0 0 0-.495.129l-.193.322c.408.322.838.43 1.246.43.708 0 1.396-.366 1.396-1.139.043-.537-.365-.816-.86-.924ZM61.015 49.476h.43v1.074h.6v.773h-.6v2.406h-.924v-2.406h-.408v-.773h.408v-.58c-.022-.257.215-.494.494-.494ZM43.296 50.55h.43v3.179h-.924v-2.685c0-.279.215-.494.494-.494ZM35.672 51.753h1.482c-.064-.408-.3-.644-.73-.644-.322 0-.666.193-.752.644Zm-.021.58c.086.58.515.816.88.816s.645-.107.86-.258l.279.623c-.387.215-.774.3-1.246.3-1.074 0-1.74-.708-1.74-1.675 0-.987.71-1.696 1.697-1.696 1.052 0 1.632.687 1.632 1.675 0 .064 0 .15-.021.215H35.65ZM43.833 49.412c0 .28-.214.494-.472.494a.482.482 0 0 1-.473-.494c0-.258.215-.494.473-.494a.511.511 0 0 1 .472.494Z"/></svg>
